www/assets/images/test_icons/flags/HT.svg

<svg fill="none" height="15" viewBox="0 0 21 15" width="21" xmlns="http://www.w3.org/2000/svg" xmlns:xlink="http://www.w3.org/1999/xlink"><mask id="a" height="15" maskUnits="userSpaceOnUse" width="21" x="0" y="0"><path d="m19 0h-17c-1.10457 0-2 .89543-2 2v11c0 1.1046.89543 2 2 2h17c1.1046 0 2-.8954 2-2v-11c0-1.10457-.8954-2-2-2z" fill="#fff"/></mask><g mask="url(#a)"><path d="m19 0h-17c-1.10457 0-2 .89543-2 2v11c0 1.1046.89543 2 2 2h17c1.1046 0 2-.8954 2-2v-11c0-1.10457-.8954-2-2-2z" fill="#d4062e"/><g clip-rule="evenodd" fill-rule="evenodd"><path d="m0 0h21v8h-21z" fill="#0017a2"/><path d="m8 6h5v3h-5z" fill="#fff"/><path d="m10 7h1v2h-1z" fill="#f2b600"/><path d="m9 7.5c0-.828.666-1.5 1.5-1.5.828 0 1.5.666 1.5 1.5v1.5h-3zm1 .005c0-.28.232-.505.5-.505.276 0 .5.214.5.505v1.495h-1z" fill="#1c672c"/></g><path d="m19 .5h-17c-.82843 0-1.5.67157-1.5 1.5v11c0 .8284.67157 1.5 1.5 1.5h17c.8284 0 1.5-.6716 1.5-1.5v-11c0-.82843-.6716-1.5-1.5-1.5z" stroke="#000" stroke-opacity=".1"/></g></svg>

<svg width="21" height="15" viewBox="0 0 21 15" fill="none" xmlns="http://www.w3.org/2000/svg">
<mask id="mask0_3_136" style="mask-type:alpha" maskUnits="userSpaceOnUse" x="0" y="0" width="21" height="15">
<path d="M19 0H2C0.89543 0 0 0.89543 0 2V13C0 14.1046 0.89543 15 2 15H19C20.1046 15 21 14.1046 21 13V2C21 0.89543 20.1046 0 19 0Z" fill="white"/>
</mask>
<g mask="url(#mask0_3_136)">
<path d="M19 0H2C0.89543 0 0 0.89543 0 2V13C0 14.1046 0.89543 15 2 15H19C20.1046 15 21 14.1046 21 13V2C21 0.89543 20.1046 0 19 0Z" fill="#D4062E"/>
<path fill-rule="evenodd" clip-rule="evenodd" d="M0 0H21V8H0V0Z" fill="#0017A2"/>
<path fill-rule="evenodd" clip-rule="evenodd" d="M8 6H13V9H8V6Z" fill="white"/>
<path fill-rule="evenodd" clip-rule="evenodd" d="M10 7H11V9H10V7Z" fill="#F2B600"/>
<path fill-rule="evenodd" clip-rule="evenodd" d="M9 7.5C9 6.672 9.666 6 10.5 6C11.328 6 12 6.666 12 7.5V9H9V7.5ZM10 7.505C10 7.225 10.232 7 10.5 7C10.776 7 11 7.214 11 7.505V9H10V7.505Z" fill="#1C672C"/>
<path d="M19 0.5H2C1.17157 0.5 0.5 1.17157 0.5 2V13C0.5 13.8284 1.17157 14.5 2 14.5H19C19.8284 14.5 20.5 13.8284 20.5 13V2C20.5 1.17157 19.8284 0.5 19 0.5Z" stroke="black" stroke-opacity="0.1"/>
</g>
</svg>
